X: 4
T:Silver Spear, The
M:C|
L:1/8
R:Reel
K:D
AG[|:FA~A2 BAFA|dfed BcdA|FA~A2 BAFA|dfed B2AG|!
FA~A2 BAFA|dfed Bdef|~g3e ~f3e|1dfed B2AG:|2dfed Bcde|!
|:f2af bfaf|gfed Bcde|faaf bfaf|gfed B2A2|!
faaf bfaf|gfed Bdef|~g3e ~f3e|1dfed Bcde:|2dfed B2AG|]!
